X: 28968
T: Nane As Kiare Feed
R: reel
M: 4/4
K: Gmajor
B>A|G2 E2 E2 D2|G2 G2 A2 G>A|B2 e2 d2 B>A|G2 E2 E2 B>A|
G2 E2 E2 D2|G2 G2 A2 G>A|B2 e2 d2 B>A|G2 E2 E2 B>c|
d3e d2 Bc|d3e d2 d2|e2 e2 eg fe|d2 B2 A2 B>A|
G2 E2 E2 D2|G2 G2 A2 G>A|B2 e2 d2 B>A|G2 E2 E2||

